Sources/FrostedUI/Resources/Icons.xcassets/code24.imageset/code-24.svg

<svg width="24" height="24" viewBox="0 0 24 24" fill="none" xmlns="http://www.w3.org/2000/svg" data-fui-icon="true">
  <path
    d="M13.5264 3.55258C13.6353 3.15314 14.0478 2.91752 14.4473 3.02621C14.8466 3.1353 15.0824 3.54766 14.9736 3.94711L10.4736 20.4471C10.3647 20.8466 9.95221 21.0822 9.55273 20.9735C9.15337 20.8643 8.91742 20.4521 9.02637 20.0526L13.5264 3.55258ZM5.20312 7.23618C5.48692 6.93464 5.96203 6.92035 6.26367 7.20395C6.56506 7.48777 6.57948 7.96193 6.2959 8.26352L3.58594 11.1434C3.13324 11.6246 3.13334 12.375 3.58594 12.8563L6.2959 15.7362C6.57948 16.0378 6.56506 16.5119 6.26367 16.7957C5.96203 17.0795 5.48696 17.0651 5.20312 16.7635L2.49316 13.8846C1.49708 12.8258 1.49698 11.1738 2.49316 10.1151L5.20312 7.23618ZM17.7354 7.20395C18.0369 6.92015 18.512 6.93482 18.7959 7.23618L21.5059 10.1151C22.5024 11.1739 22.5024 12.8258 21.5059 13.8846L18.7959 16.7635C18.512 17.065 18.0369 17.0796 17.7354 16.7957C17.4344 16.5119 17.4199 16.0377 17.7031 15.7362L20.4131 12.8563C20.8661 12.375 20.8661 11.6247 20.4131 11.1434L17.7031 8.26352C17.42 7.96199 17.4343 7.48768 17.7354 7.20395Z"
    fill="currentColor"
  />
</svg>

<svg xmlns="http://www.w3.org/2000/svg" width="24" height="24" fill="none" data-fui-icon="true" viewBox="0 0 24 24"><path fill="currentColor" d="M13.526 3.553a.75.75 0 0 1 1.448.394l-4.5 16.5a.75.75 0 0 1-1.448-.394zM5.203 7.236a.75.75 0 0 1 1.093 1.028l-2.71 2.88a1.25 1.25 0 0 0 0 1.712l2.71 2.88a.75.75 0 1 1-1.093 1.027l-2.71-2.878a2.75 2.75 0 0 1 0-3.77zm12.532-.032a.75.75 0 0 1 1.06.032l2.71 2.88a2.75 2.75 0 0 1 0 3.769l-2.71 2.879a.75.75 0 0 1-1.092-1.028l2.71-2.88a1.25 1.25 0 0 0 0-1.713l-2.71-2.88a.75.75 0 0 1 .032-1.059"/></svg>
